X:773
T:Eddie Moloney's
R:reel
D:Frankie Gavin: Croch suas E
D:Paul McGrattan: The Frost Is All Over
Z:id:hn-reel-773
M:C|
K:G
~g3a gdBd|~g2bg ea~a2|g2dg gdBd|ecAc BG~G2|
~g3a gdBd|~g2dg ea~a2|g2ga gdBd|ecAc BG~G2||
|:GdBd ~G3z|GdBd eA~A2|GABd g2ge|1 fdcA AGFA:|2 fdcA AGAF||
|:~G2dG BGdG|~G2dG FDFA|1 ~G2dG (3Bcd eg|fdcA AGAF:|2 ~G3A (3Bcd ef|gdcA AG (3Bcd||
